portal/assets/img/component/tab/anatomy-toggletab.svg

<svg width="199" height="142" viewBox="0 0 199 142" fill="none" xmlns="http://www.w3.org/2000/svg">
<path d="M0 50H199V98H0V50Z" fill="white"/>
<path d="M20.625 68C20.7245 68 20.8198 68.0395 20.8902 68.1098C20.9605 68.1802 21 68.2755 21 68.375V68.75H27V68.375C27 68.2755 27.0395 68.1802 27.1098 68.1098C27.1802 68.0395 27.2755 68 27.375 68C27.4745 68 27.5698 68.0395 27.6402 68.1098C27.7105 68.1802 27.75 68.2755 27.75 68.375V68.75H28.5C28.8978 68.75 29.2794 68.908 29.5607 69.1893C29.842 69.4706 30 69.8522 30 70.25V78.5C30 78.8978 29.842 79.2794 29.5607 79.5607C29.2794 79.842 28.8978 80 28.5 80H19.5C19.1022 80 18.7206 79.842 18.4393 79.5607C18.158 79.2794 18 78.8978 18 78.5V70.25C18 69.8522 18.158 69.4706 18.4393 69.1893C18.7206 68.908 19.1022 68.75 19.5 68.75H20.25V68.375C20.25 68.2755 20.2895 68.1802 20.3598 68.1098C20.4302 68.0395 20.5255 68 20.625 68ZM18.75 71V78.5C18.75 78.6989 18.829 78.8897 18.9697 79.0303C19.1103 79.171 19.3011 79.25 19.5 79.25H28.5C28.6989 79.25 28.8897 79.171 29.0303 79.0303C29.171 78.8897 29.25 78.6989 29.25 78.5V71H18.75Z" fill="#344054"/>
<path d="M50.4091 80V68.3636H51.8182V78.75H57.2273V80H50.4091ZM61.7955 80.2045C61.2424 80.2045 60.7405 80.1004 60.2898 79.892C59.839 79.6799 59.4811 79.375 59.2159 78.9773C58.9508 78.5758 58.8182 78.0909 58.8182 77.5227C58.8182 77.0227 58.9167 76.6174 59.1136 76.3068C59.3106 75.9924 59.5739 75.7462 59.9034 75.5682C60.233 75.3902 60.5966 75.2576 60.9943 75.1705C61.3958 75.0795 61.7992 75.0076 62.2045 74.9545C62.7348 74.8864 63.1648 74.8352 63.4943 74.8011C63.8277 74.7633 64.0701 74.7008 64.2216 74.6136C64.3769 74.5265 64.4545 74.375 64.4545 74.1591V74.1136C64.4545 73.553 64.3011 73.1174 63.9943 72.8068C63.6913 72.4962 63.2311 72.3409 62.6136 72.3409C61.9735 72.3409 61.4716 72.4811 61.108 72.7614C60.7443 73.0417 60.4886 73.3409 60.3409 73.6591L59.0682 73.2045C59.2955 72.6742 59.5985 72.2614 59.9773 71.9659C60.3598 71.6667 60.7765 71.4583 61.2273 71.3409C61.6818 71.2197 62.1288 71.1591 62.5682 71.1591C62.8485 71.1591 63.1705 71.1932 63.5341 71.2614C63.9015 71.3258 64.2557 71.4602 64.5966 71.6648C64.9413 71.8693 65.2273 72.178 65.4545 72.5909C65.6818 73.0038 65.7955 73.5568 65.7955 74.25V80H64.4545V78.8182H64.3864C64.2955 79.0076 64.1439 79.2102 63.9318 79.4261C63.7197 79.642 63.4375 79.8258 63.0852 79.9773C62.733 80.1288 62.303 80.2045 61.7955 80.2045ZM62 79C62.5303 79 62.9773 78.8958 63.3409 78.6875C63.7083 78.4792 63.9848 78.2102 64.1705 77.8807C64.3598 77.5511 64.4545 77.2045 64.4545 76.8409V75.6136C64.3977 75.6818 64.2727 75.7443 64.0795 75.8011C63.8902 75.8542 63.6705 75.9015 63.4205 75.9432C63.1742 75.9811 62.9337 76.0152 62.6989 76.0455C62.4678 76.072 62.2803 76.0947 62.1364 76.1136C61.7879 76.1591 61.4621 76.233 61.1591 76.3352C60.8598 76.4337 60.6174 76.5833 60.4318 76.7841C60.25 76.9811 60.1591 77.25 60.1591 77.5909C60.1591 78.0568 60.3314 78.4091 60.6761 78.6477C61.0246 78.8826 61.4659 79 62 79ZM68.4247 80V68.3636H69.7656V72.6591H69.8793C69.9777 72.5076 70.1141 72.3144 70.2884 72.0795C70.4664 71.8409 70.7202 71.6288 71.0497 71.4432C71.383 71.2538 71.8338 71.1591 72.402 71.1591C73.1368 71.1591 73.7846 71.3428 74.3452 71.7102C74.9058 72.0777 75.3433 72.5985 75.6577 73.2727C75.9721 73.947 76.1293 74.7424 76.1293 75.6591C76.1293 76.5833 75.9721 77.3845 75.6577 78.0625C75.3433 78.7367 74.9077 79.2595 74.3509 79.6307C73.794 79.9981 73.152 80.1818 72.4247 80.1818C71.8641 80.1818 71.4152 80.089 71.0781 79.9034C70.741 79.714 70.4815 79.5 70.2997 79.2614C70.1179 79.0189 69.9777 78.8182 69.8793 78.6591H69.7202V80H68.4247ZM69.7429 75.6364C69.7429 76.2955 69.8395 76.8769 70.0327 77.3807C70.2259 77.8807 70.508 78.2727 70.8793 78.5568C71.2505 78.8371 71.705 78.9773 72.2429 78.9773C72.8035 78.9773 73.2713 78.8295 73.6463 78.5341C74.0251 78.2348 74.3092 77.8333 74.4986 77.3295C74.6918 76.822 74.7884 76.2576 74.7884 75.6364C74.7884 75.0227 74.6937 74.4697 74.5043 73.9773C74.3187 73.4811 74.0365 73.089 73.6577 72.8011C73.2827 72.5095 72.8111 72.3636 72.2429 72.3636C71.6974 72.3636 71.2391 72.5019 70.8679 72.7784C70.4967 73.0511 70.2164 73.4337 70.027 73.9261C69.8376 74.4148 69.7429 74.9848 69.7429 75.6364ZM81.8395 80.1818C80.9986 80.1818 80.2732 79.9962 79.6634 79.625C79.0573 79.25 78.5895 78.7273 78.2599 78.0568C77.9342 77.3826 77.7713 76.5985 77.7713 75.7045C77.7713 74.8106 77.9342 74.0227 78.2599 73.3409C78.5895 72.6553 79.0478 72.1212 79.6349 71.7386C80.2259 71.3523 80.9152 71.1591 81.7031 71.1591C82.1577 71.1591 82.6065 71.2348 83.0497 71.3864C83.4929 71.5379 83.8963 71.7841 84.2599 72.125C84.6236 72.4621 84.9134 72.9091 85.1293 73.4659C85.3452 74.0227 85.4531 74.7083 85.4531 75.5227V76.0909H78.7259V74.9318H84.0895C84.0895 74.4394 83.991 74 83.794 73.6136C83.6009 73.2273 83.3243 72.9223 82.9645 72.6989C82.6084 72.4754 82.188 72.3636 81.7031 72.3636C81.169 72.3636 80.7069 72.4962 80.3168 72.7614C79.9304 73.0227 79.633 73.3636 79.4247 73.7841C79.2164 74.2045 79.1122 74.6553 79.1122 75.1364V75.9091C79.1122 76.5682 79.2259 77.1269 79.4531 77.5852C79.6842 78.0398 80.0043 78.3864 80.4134 78.625C80.8224 78.8598 81.2978 78.9773 81.8395 78.9773C82.1918 78.9773 82.5099 78.928 82.794 78.8295C83.0819 78.7273 83.33 78.5758 83.5384 78.375C83.7467 78.1705 83.9077 77.9167 84.0213 77.6136L85.3168 77.9773C85.1804 78.4167 84.9512 78.803 84.6293 79.1364C84.3073 79.4659 83.9096 79.7235 83.4361 79.9091C82.9626 80.0909 82.4304 80.1818 81.8395 80.1818ZM88.8338 68.3636V80H87.4929V68.3636H88.8338ZM99.858 68.3636V80H98.4489V69.8409H98.3807L95.5398 71.7273V70.2955L98.4489 68.3636H99.858Z" fill="#344054"/>
<rect x="119" y="65" width="31" height="18" rx="3" fill="#F7F7F9"/>
<path d="M129.767 68.679C130.291 68.679 130.795 68.7668 131.278 68.9425C131.766 69.1181 132.2 69.3982 132.581 69.7827C132.965 70.1671 133.269 70.6776 133.491 71.3139C133.716 71.947 133.83 72.7242 133.834 73.6456C133.834 74.5107 133.736 75.2829 133.54 75.9624C133.348 76.6385 133.071 77.2135 132.71 77.6875C132.349 78.1615 131.913 78.5227 131.403 78.7713C130.892 79.0166 130.322 79.1392 129.692 79.1392C129.013 79.1392 128.413 79.0083 127.893 78.7464C127.372 78.4813 126.953 78.1217 126.635 77.6676C126.32 77.2102 126.129 76.6965 126.063 76.1264H128.186C128.269 76.4976 128.443 76.786 128.708 76.9915C128.973 77.1937 129.301 77.2947 129.692 77.2947C130.355 77.2947 130.859 77.0064 131.204 76.4297C131.549 75.8497 131.723 75.0559 131.726 74.0483H131.656C131.504 74.3466 131.298 74.6035 131.04 74.8189C130.781 75.031 130.485 75.1951 130.15 75.3111C129.818 75.4271 129.465 75.4851 129.091 75.4851C128.491 75.4851 127.956 75.3442 127.485 75.0625C127.014 74.7808 126.643 74.393 126.371 73.8991C126.1 73.4053 125.964 72.8419 125.964 72.2088C125.96 71.526 126.118 70.9179 126.436 70.3842C126.754 69.8506 127.198 69.433 127.768 69.1314C128.342 68.8265 129.008 68.6757 129.767 68.679ZM129.782 70.3693C129.447 70.3693 129.149 70.4489 128.887 70.608C128.629 70.767 128.423 70.9808 128.271 71.2493C128.121 71.5178 128.049 71.8177 128.052 72.1491C128.052 72.4839 128.125 72.7855 128.271 73.054C128.42 73.3191 128.622 73.5312 128.877 73.6903C129.136 73.8461 129.431 73.924 129.762 73.924C130.011 73.924 130.241 73.8776 130.453 73.7848C130.665 73.692 130.849 73.5644 131.005 73.402C131.164 73.2363 131.288 73.0457 131.378 72.8303C131.467 72.6148 131.512 72.3861 131.512 72.1442C131.509 71.8227 131.433 71.5277 131.283 71.2592C131.134 70.9908 130.929 70.7753 130.667 70.6129C130.405 70.4505 130.11 70.3693 129.782 70.3693ZM139.009 68.679C139.533 68.679 140.037 68.7668 140.521 68.9425C141.008 69.1181 141.442 69.3982 141.823 69.7827C142.208 70.1671 142.511 70.6776 142.733 71.3139C142.958 71.947 143.073 72.7242 143.076 73.6456C143.076 74.5107 142.978 75.2829 142.783 75.9624C142.59 76.6385 142.314 77.2135 141.952 77.6875C141.591 78.1615 141.155 78.5227 140.645 78.7713C140.134 79.0166 139.564 79.1392 138.935 79.1392C138.255 79.1392 137.655 79.0083 137.135 78.7464C136.615 78.4813 136.195 78.1217 135.877 77.6676C135.562 77.2102 135.372 76.6965 135.305 76.1264H137.428C137.511 76.4976 137.685 76.786 137.95 76.9915C138.215 77.1937 138.544 77.2947 138.935 77.2947C139.598 77.2947 140.101 77.0064 140.446 76.4297C140.791 75.8497 140.965 75.0559 140.968 74.0483H140.898C140.746 74.3466 140.54 74.6035 140.282 74.8189C140.023 75.031 139.727 75.1951 139.392 75.3111C139.061 75.4271 138.708 75.4851 138.333 75.4851C137.733 75.4851 137.198 75.3442 136.727 75.0625C136.257 74.7808 135.885 74.393 135.614 73.8991C135.342 73.4053 135.206 72.8419 135.206 72.2088C135.203 71.526 135.36 70.9179 135.678 70.3842C135.996 69.8506 136.441 69.433 137.011 69.1314C137.584 68.8265 138.25 68.6757 139.009 68.679ZM139.024 70.3693C138.689 70.3693 138.391 70.4489 138.129 70.608C137.871 70.767 137.665 70.9808 137.513 71.2493C137.364 71.5178 137.291 71.8177 137.294 72.1491C137.294 72.4839 137.367 72.7855 137.513 73.054C137.662 73.3191 137.864 73.5312 138.119 73.6903C138.378 73.8461 138.673 73.924 139.004 73.924C139.253 73.924 139.483 73.8776 139.695 73.7848C139.907 73.692 140.091 73.5644 140.247 73.402C140.406 73.2363 140.531 73.0457 140.62 72.8303C140.71 72.6148 140.754 72.3861 140.754 72.1442C140.751 71.8227 140.675 71.5277 140.526 71.2592C140.376 70.9908 140.171 70.7753 139.909 70.6129C139.647 70.4505 139.352 70.3693 139.024 70.3693Z" fill="#344054"/>
<path d="M171.625 68C171.724 68 171.82 68.0395 171.89 68.1098C171.96 68.1802 172 68.2755 172 68.375V68.75H178V68.375C178 68.2755 178.04 68.1802 178.11 68.1098C178.18 68.0395 178.276 68 178.375 68C178.474 68 178.57 68.0395 178.64 68.1098C178.71 68.1802 178.75 68.2755 178.75 68.375V68.75H179.5C179.898 68.75 180.279 68.908 180.561 69.1893C180.842 69.4706 181 69.8522 181 70.25V78.5C181 78.8978 180.842 79.2794 180.561 79.5607C180.279 79.842 179.898 80 179.5 80H170.5C170.102 80 169.721 79.842 169.439 79.5607C169.158 79.2794 169 78.8978 169 78.5V70.25C169 69.8522 169.158 69.4706 169.439 69.1893C169.721 68.908 170.102 68.75 170.5 68.75H171.25V68.375C171.25 68.2755 171.29 68.1802 171.36 68.1098C171.43 68.0395 171.526 68 171.625 68ZM169.75 71V78.5C169.75 78.6989 169.829 78.8897 169.97 79.0303C170.11 79.171 170.301 79.25 170.5 79.25H179.5C179.699 79.25 179.89 79.171 180.03 79.0303C180.171 78.8897 180.25 78.6989 180.25 78.5V71H169.75Z" fill="#344054"/>
<path d="M0 50V49H-1V50H0ZM199 50H200V49H199V50ZM199 98V99H200V98H199ZM0 98H-1V99H0V98ZM0 51H199V49H0V51ZM198 50V98H200V50H198ZM199 97H0V99H199V97ZM1 98V50H-1V98H1Z" fill="#98A2B3"/>
<circle cx="77" cy="126" r="12" fill="#344054"/>
<path d="M72.9432 132V130.227L77.0852 126.392C77.4375 126.051 77.733 125.744 77.9716 125.472C78.214 125.199 78.3977 124.932 78.5227 124.67C78.6477 124.405 78.7102 124.119 78.7102 123.812C78.7102 123.472 78.6326 123.178 78.4773 122.932C78.322 122.682 78.1098 122.491 77.8409 122.358C77.572 122.222 77.267 122.153 76.9261 122.153C76.5701 122.153 76.2595 122.225 75.9943 122.369C75.7292 122.513 75.5246 122.72 75.3807 122.989C75.2367 123.258 75.1648 123.578 75.1648 123.949H72.8295C72.8295 123.187 73.0019 122.527 73.3466 121.966C73.6913 121.405 74.1742 120.972 74.7955 120.665C75.4167 120.358 76.1326 120.205 76.9432 120.205C77.7765 120.205 78.5019 120.352 79.1193 120.648C79.7405 120.939 80.2235 121.345 80.5682 121.864C80.9129 122.383 81.0852 122.977 81.0852 123.648C81.0852 124.087 80.9981 124.521 80.8239 124.949C80.6534 125.377 80.3485 125.852 79.9091 126.375C79.4697 126.894 78.8504 127.517 78.0511 128.244L76.3523 129.909V129.989H81.2386V132H72.9432Z" fill="white"/>
<path d="M77 117L77 86" stroke="#344054" stroke-dasharray="2 2"/>
<circle cx="134" cy="126" r="12" fill="#344054"/>
<path d="M134.244 132.159C133.396 132.159 132.64 132.013 131.977 131.722C131.318 131.426 130.797 131.021 130.415 130.506C130.036 129.987 129.841 129.388 129.83 128.71H132.307C132.322 128.994 132.415 129.244 132.585 129.46C132.759 129.672 132.991 129.837 133.278 129.955C133.566 130.072 133.89 130.131 134.25 130.131C134.625 130.131 134.956 130.064 135.244 129.932C135.532 129.799 135.758 129.616 135.92 129.381C136.083 129.146 136.165 128.875 136.165 128.568C136.165 128.258 136.078 127.983 135.903 127.744C135.733 127.502 135.487 127.312 135.165 127.176C134.847 127.04 134.468 126.972 134.028 126.972H132.943V125.165H134.028C134.4 125.165 134.727 125.1 135.011 124.972C135.299 124.843 135.523 124.665 135.682 124.438C135.841 124.206 135.92 123.938 135.92 123.631C135.92 123.339 135.85 123.083 135.71 122.864C135.574 122.64 135.381 122.466 135.131 122.341C134.884 122.216 134.597 122.153 134.267 122.153C133.934 122.153 133.629 122.214 133.352 122.335C133.076 122.453 132.854 122.621 132.688 122.841C132.521 123.061 132.432 123.318 132.42 123.614H130.062C130.074 122.943 130.265 122.352 130.636 121.841C131.008 121.33 131.508 120.93 132.136 120.642C132.769 120.35 133.483 120.205 134.278 120.205C135.081 120.205 135.784 120.35 136.386 120.642C136.989 120.934 137.456 121.328 137.79 121.824C138.127 122.316 138.294 122.869 138.29 123.483C138.294 124.134 138.091 124.678 137.682 125.114C137.277 125.549 136.748 125.826 136.097 125.943V126.034C136.953 126.144 137.604 126.441 138.051 126.926C138.502 127.407 138.725 128.009 138.722 128.733C138.725 129.396 138.534 129.985 138.148 130.5C137.765 131.015 137.237 131.42 136.562 131.716C135.888 132.011 135.116 132.159 134.244 132.159Z" fill="white"/>
<path d="M134 117L134 86" stroke="#344054" stroke-dasharray="2 2"/>
<circle cx="72" cy="16" r="12" fill="#344054"/>
<path d="M73.0057 10.3636V22H70.5455V12.6989H70.4773L67.8125 14.3693V12.1875L70.6932 10.3636H73.0057Z" fill="white"/>
<path d="M69 16H24V66" stroke="#344054" stroke-dasharray="2 2"/>
<path d="M84 16H175V66" stroke="#344054" stroke-dasharray="2 2"/>
</svg>

<svg width="199" height="142" viewBox="0 0 199 142" fill="none" xmlns="http://www.w3.org/2000/svg"><path d="M0 50h199v48H0V50Z" fill="#fff"/><path d="M20.625 68a.375.375 0 0 1 .375.375v.375h6v-.375a.375.375 0 0 1 .75 0v.375h.75a1.5 1.5 0 0 1 1.5 1.5v8.25a1.5 1.5 0 0 1-1.5 1.5h-9a1.5 1.5 0 0 1-1.5-1.5v-8.25a1.5 1.5 0 0 1 1.5-1.5h.75v-.375a.375.375 0 0 1 .375-.375Zm-1.875 3v7.5a.75.75 0 0 0 .75.75h9a.75.75 0 0 0 .75-.75V71h-10.5Zm31.66 9V68.364h1.408V78.75h5.41V80h-6.819Zm11.386.204a3.545 3.545 0 0 1-1.506-.312 2.584 2.584 0 0 1-1.074-.915c-.265-.401-.398-.886-.398-1.454 0-.5.099-.906.296-1.216.197-.315.46-.56.79-.739.329-.178.693-.31 1.09-.397.402-.092.805-.163 1.21-.217.53-.068.96-.119 1.29-.153.334-.038.576-.1.728-.187.155-.088.233-.239.233-.455v-.045c0-.561-.154-.997-.46-1.307-.304-.31-.764-.466-1.381-.466-.64 0-1.142.14-1.506.42-.364.28-.62.58-.767.898l-1.273-.455c.227-.53.53-.943.91-1.238.382-.3.798-.508 1.25-.625a5.19 5.19 0 0 1 1.34-.182c.28 0 .602.034.966.102a3.09 3.09 0 0 1 1.063.404c.344.204.63.513.858.926.227.413.34.966.34 1.659V80h-1.34v-1.182h-.069a2.36 2.36 0 0 1-.454.608c-.212.216-.495.4-.847.551-.352.152-.782.227-1.29.227ZM62 79c.53 0 .977-.104 1.34-.313a2.128 2.128 0 0 0 1.114-1.846v-1.227c-.056.068-.181.13-.374.187-.19.053-.41.1-.66.142a29.952 29.952 0 0 1-1.284.17 5.19 5.19 0 0 0-.977.222 1.67 1.67 0 0 0-.727.45c-.182.196-.273.465-.273.806 0 .466.172.818.517 1.057.349.235.79.352 1.324.352Zm6.425 1V68.364h1.34v4.295h.114c.099-.151.235-.345.41-.58.177-.238.431-.45.76-.636.334-.19.785-.284 1.353-.284.735 0 1.383.184 1.943.551.56.368.998.889 1.313 1.563.314.674.471 1.47.471 2.386 0 .924-.157 1.725-.471 2.403-.315.675-.75 1.198-1.307 1.569-.557.367-1.199.55-1.926.55-.56 0-1.01-.092-1.347-.278-.337-.189-.597-.403-.778-.642a8.589 8.589 0 0 1-.42-.602h-.16V80h-1.295Zm1.318-4.364c0 .66.097 1.24.29 1.745.193.5.475.892.846 1.176.371.28.826.42 1.364.42.56 0 1.028-.148 1.403-.443.38-.3.663-.7.853-1.205.193-.507.29-1.071.29-1.693 0-.613-.095-1.166-.285-1.659-.185-.496-.468-.888-.846-1.176-.375-.291-.847-.437-1.415-.437-.546 0-1.004.138-1.375.414-.371.273-.652.656-.841 1.148-.19.489-.284 1.059-.284 1.71Zm12.097 4.546c-.841 0-1.567-.186-2.177-.557a3.737 3.737 0 0 1-1.403-1.568c-.326-.674-.489-1.459-.489-2.353 0-.893.163-1.681.489-2.363.33-.686.788-1.22 1.375-1.602.59-.387 1.28-.58 2.068-.58.455 0 .903.076 1.347.227.443.152.846.398 1.21.739.364.337.653.784.87 1.34.215.558.323 1.243.323 2.058v.568h-6.727v-1.16h5.364c0-.492-.099-.931-.296-1.317a2.226 2.226 0 0 0-.83-.915c-.356-.224-.776-.335-1.26-.335-.535 0-.997.132-1.387.397a2.615 2.615 0 0 0-.892 1.023c-.209.42-.313.871-.313 1.352v.773c0 .66.114 1.218.341 1.676.231.455.551.801.96 1.04.41.235.885.352 1.427.352.352 0 .67-.049.954-.148a2.03 2.03 0 0 0 .744-.454c.209-.204.37-.458.483-.761l1.296.363c-.137.44-.366.826-.688 1.16-.322.329-.72.587-1.193.772a4.426 4.426 0 0 1-1.597.273Zm6.994-11.818V80h-1.341V68.364h1.34Zm11.024 0V80h-1.41V69.84h-.067l-2.841 1.887v-1.431l2.909-1.932h1.409Z" fill="#344054"/><rect x="119" y="65" width="31" height="18" rx="3" fill="#F7F7F9"/><path d="M129.767 68.679c.524 0 1.028.088 1.511.263.488.176.922.456 1.303.84.384.385.688.896.91 1.532.225.633.339 1.41.343 2.332 0 .865-.098 1.637-.294 2.316-.192.676-.469 1.251-.83 1.725a3.627 3.627 0 0 1-1.307 1.084 3.902 3.902 0 0 1-1.711.368c-.679 0-1.279-.13-1.799-.393a3.373 3.373 0 0 1-1.258-1.078 3.355 3.355 0 0 1-.572-1.542h2.123c.083.372.257.66.522.865.265.203.593.304.984.304.663 0 1.167-.289 1.512-.865.345-.58.519-1.374.522-2.382h-.07a2.436 2.436 0 0 1-.616.77 2.874 2.874 0 0 1-.89.493 3.188 3.188 0 0 1-1.059.174c-.6 0-1.135-.14-1.606-.422a3.031 3.031 0 0 1-1.114-1.164c-.271-.494-.407-1.057-.407-1.69-.004-.683.154-1.291.472-1.825a3.326 3.326 0 0 1 1.332-1.253c.574-.305 1.24-.455 1.999-.452Zm.015 1.69c-.335 0-.633.08-.895.239a1.76 1.76 0 0 0-.616.641c-.15.269-.222.569-.219.9 0 .335.073.636.219.905.149.265.351.477.606.636.259.156.554.234.885.234a1.703 1.703 0 0 0 1.243-.522c.159-.166.283-.356.373-.572a1.82 1.82 0 0 0-.095-1.571 1.744 1.744 0 0 0-.616-.646 1.645 1.645 0 0 0-.885-.244Zm9.227-1.69c.524 0 1.028.088 1.512.263.487.176.921.456 1.302.84.385.385.688.896.91 1.532.225.633.34 1.41.343 2.332 0 .865-.098 1.637-.293 2.316-.193.676-.469 1.251-.831 1.725a3.627 3.627 0 0 1-1.307 1.084 3.9 3.9 0 0 1-1.71.368c-.68 0-1.28-.13-1.8-.393a3.38 3.38 0 0 1-1.258-1.078 3.366 3.366 0 0 1-.572-1.542h2.123c.083.372.257.66.522.865.265.203.594.304.985.304.663 0 1.166-.289 1.511-.865.345-.58.519-1.374.522-2.382h-.07a2.436 2.436 0 0 1-.616.77 2.874 2.874 0 0 1-.89.493 3.18 3.18 0 0 1-1.059.174c-.6 0-1.135-.14-1.606-.422a3.029 3.029 0 0 1-1.113-1.164c-.272-.494-.408-1.057-.408-1.69-.003-.683.154-1.291.472-1.825a3.329 3.329 0 0 1 1.333-1.253c.573-.305 1.239-.455 1.998-.452Zm.015 1.69c-.335 0-.633.08-.895.239a1.76 1.76 0 0 0-.616.641 1.788 1.788 0 0 0-.219.9c0 .335.073.636.219.905.149.265.351.477.606.636.259.156.554.234.885.234a1.703 1.703 0 0 0 1.243-.522c.159-.166.284-.356.373-.572a1.83 1.83 0 0 0-.094-1.571 1.755 1.755 0 0 0-.617-.646 1.645 1.645 0 0 0-.885-.244ZM171.625 68a.375.375 0 0 1 .375.375v.375h6v-.375a.377.377 0 0 1 .375-.375.375.375 0 0 1 .375.375v.375h.75a1.502 1.502 0 0 1 1.5 1.5v8.25a1.501 1.501 0 0 1-1.5 1.5h-9a1.502 1.502 0 0 1-1.5-1.5v-8.25a1.501 1.501 0 0 1 1.5-1.5h.75v-.375a.377.377 0 0 1 .375-.375Zm-1.875 3v7.5a.749.749 0 0 0 .75.75h9a.748.748 0 0 0 .75-.75V71h-10.5Z" fill="#344054"/><path d="M0 50v-1h-1v1h1Zm199 0h1v-1h-1v1Zm0 48v1h1v-1h-1ZM0 98h-1v1h1v-1Zm0-47h199v-2H0v2Zm198-1v48h2V50h-2Zm1 47H0v2h199v-2ZM1 98V50h-2v48h2Z" fill="#98A2B3"/><circle cx="77" cy="126" r="12" fill="#344054"/><path d="M72.943 132v-1.773l4.142-3.835c.353-.341.648-.648.887-.92.242-.273.426-.54.55-.802.126-.265.188-.551.188-.858 0-.34-.077-.634-.233-.88a1.533 1.533 0 0 0-.636-.574 2 2 0 0 0-.915-.205c-.356 0-.666.072-.932.216a1.49 1.49 0 0 0-.613.62c-.144.269-.216.589-.216.96h-2.336c0-.762.173-1.422.518-1.983a3.45 3.45 0 0 1 1.449-1.301c.62-.307 1.337-.46 2.147-.46.834 0 1.559.147 2.176.443.621.291 1.105.697 1.45 1.216.344.519.516 1.113.516 1.784 0 .439-.087.873-.261 1.301-.17.428-.475.903-.915 1.426-.44.519-1.059 1.142-1.858 1.869l-1.699 1.665v.08h4.887V132h-8.296Z" fill="#fff"/><path d="M77 117V86" stroke="#344054" stroke-dasharray="2 2"/><circle cx="134" cy="126" r="12" fill="#344054"/><path d="M134.244 132.159c-.848 0-1.604-.146-2.267-.437-.659-.296-1.18-.701-1.562-1.216a3.054 3.054 0 0 1-.585-1.796h2.477c.015.284.108.534.278.75.174.212.406.377.693.495.288.117.612.176.972.176.375 0 .706-.067.994-.199.288-.133.514-.316.676-.551.163-.235.245-.506.245-.813 0-.31-.087-.585-.262-.824a1.666 1.666 0 0 0-.738-.568c-.318-.136-.697-.204-1.137-.204h-1.085v-1.807h1.085c.372 0 .699-.065.983-.193.288-.129.512-.307.671-.534.159-.232.238-.5.238-.807 0-.292-.07-.548-.21-.767a1.382 1.382 0 0 0-.579-.523 1.887 1.887 0 0 0-.864-.188c-.333 0-.638.061-.915.182a1.599 1.599 0 0 0-.664.506c-.167.22-.256.477-.268.773h-2.358c.012-.671.203-1.262.574-1.773.372-.511.872-.911 1.5-1.199.633-.292 1.347-.437 2.142-.437.803 0 1.506.145 2.108.437.603.292 1.07.686 1.404 1.182.337.492.504 1.045.5 1.659.004.651-.199 1.195-.608 1.631-.405.435-.934.712-1.585.829v.091c.856.11 1.507.407 1.954.892.451.481.674 1.083.671 1.807a2.846 2.846 0 0 1-.574 1.767c-.383.515-.911.92-1.586 1.216-.674.295-1.446.443-2.318.443Z" fill="#fff"/><path d="M134 117V86" stroke="#344054" stroke-dasharray="2 2"/><circle cx="72" cy="16" r="12" fill="#344054"/><path d="M73.006 10.364V22h-2.46v-9.301h-.069l-2.665 1.67v-2.181l2.881-1.824h2.313Z" fill="#fff"/><path d="M69 16H24v50m60-50h91v50" stroke="#344054" stroke-dasharray="2 2"/></svg>
